X: 1
T:The Market Place of Inverness
M:C
L:1/8
Q:80
C:arr. John MacLellan, MBE
S:Strathspey
K:HP
|: {Gdc}d2{g}f3/2e/2{Gdc}d2{e}A3/2B/2|
{Gdc}d2{g}f3/2d/2{ag}a3/2d/2{g}f/2a3/2|
{Gdc}d2{g}f3/2e/2{Gdc}d2{g}((3efg)|  !
{ag}a3/2e/2{gfg}f3/2d/2{gef}e3/2A/2{d}c/2e3/2:| |
|: {Gdc}d3/2f/2{g}A3/2f/2{Gdc}d3/2f/2{ag}a3/2f/2|
{Gdc}d3/2f/2{g}A3/2a/2{fg}f3/2d/2{g}f/2a3/2|1 {Gdc}d3/2f/2{g}A3/2f/2{Gdc
}d3/2f/2{ag}a3/2f/2|  !
{gf}g3/2e/2{gfg}f3/2d/2{gef}e3/2A/2{d}c/2e3/2:| |
|2 {gf}g3/2e/2{gfg}f3/2d/2{gef}e3/2c/2{Gdc}d3/2B/2|
{Gdc}d3/2B/2{g}G3/2f/2{gef}e3/2A/2{g}c/2e3/2|]  !
